!!!COM: Scriabin, Alexander
!!!OTL@@FR: Prélude en mi majeur
!!!OTL@@EN: Prelude in E Major
!!!OPR@@FR: 24 Préludes
!!!OPR@@EN: 24 Preludes
!!!OPS: 11
!!!ONM: 9
!!!ODT: 1894
!!!AGN: Prelude
**kern	**kern	**dynam
*staff2	*staff1	*staff1/2
*Ipiano	*Ipiano	*
*clefF4	*clefG2	*
*k[f#c#g#d#]	*k[f#c#g#d#]	*
*E:	*E:	*
*M3/4	*M3/4	*
=1	=1	=1
8c#L	4r	mf
8B#X	.	.
*	*^	*
8c#	4e 4a	4ee	.
8F#	.	.	.
8G#	4e	4bn	.
8C#J	.	.	.
=2	=2	=2	=2
[2.F#	4c# 4e	[2.a	.
.	4c# 4e	.	>
.	4c# 4e	.	]
=3	=3	=3	=3
8F#L]	4cn 4e	4a]	p
8E#X	.	.	.
8F#	4B 4d#	4a	.
8BB	.	.	.
8C#X	4A 4en	4b	<
8FF#J	.	.	[
=4	=4	=4	=4
2BB	4A 4d#	4g#	>
.	4A 4d#	2f#	]
4AA	4F# 4c#X	.	.
*	*v	*v	*
=5	=5	=5
8GG#L	4r	.
8AA	.	.
*	*^	*
8E	4F# 4c#	4f#	.
[8D#	.	.	.
8D#]	4F# 4B#X	4g#	<
8GG#J	.	.	.
*	*v	*v	*
!!LO:LB:g=original
=6	=6	=6
8CC#L	4E 4c# 4e	.
8GG#	.	.
8E	4c# 4g# 4ee	.
8GG#	.	.
8E	4e 4g# 4dd#	.
8BnJ	.	.
=7	=7	=7
8FF#L	4e 4g# 4cc#	.
8C#	.	.
8B	4e 4f# 4dd#	>
8A#X	.	)
8G#	4e 4a#X 4cc#	)
8F#J	.	)
=8	=8	=8
8F#L	4e 4an 4cc#	)
8G#	.	)
8An	4d# 4f# 4b	]
8A#X	.	.
8B	4r	.
8B#XJ	.	.
=9	=9	=9
8c#L	4r	pp
8B#X	.	.
*	*^	*
8c#	4e 4a	8eeL	.
8F#	.	8dd#J	.
8G#	4e	12cc#L	.
.	.	12.bn	.
8C#J	.	.	.
.	.	24cc#Jk	.
=10	=10	=10	=10
[2.F#	4c# 4e	[2.a	<
.	4c# 4e	.	(
.	4c# 4e	.	[
!!LO:LB:g=original
=11	=11	=11	=11
8F#L]	4cn 4e	4a]	mf
8E#X	.	.	.
8F#	4B 4d#	4a	.
8BB	.	.	.
8C#X	4A 4en	4b	.
8FF#J	.	.	.
=12	=12	=12	=12
2BB	4A 4d#	4g#	>
.	4A 4d#	4f#	]
4AA	4F# 4c#X	4r	.
*	*v	*v	*
=13	=13	=13
*	*	*^
8GG#L	4r	<	p
8AA	.	[	.
*	*^	*	*
8E	4F# 4c#	2f#	>	.
[8D#J	.	.	)	.
4D#]	4F# 4c#	.	]	.
*	*v	*v	*	*
=14	=14	=14	=14
8GG#L	4r	<	.
8AA	.	[	.
*	*^	*	*
8E	4F# 4c#	4f#	>	.
[8D#J	.	.	)	.
4D#]	4F# 4B#X	4g#	]	<
*	*	*	*v	*v
*	*v	*v	*
=15	=15	=15
8C#L	4r	<
8Dn	.	[
*	*^	*
8A	4Bn 4f#	2bn	>
[8G#J	.	.	)
4G#]	4B 4f#	.	]
*	*v	*v	*
=16	=16	=16
8C#L	4r	<
8Dn	.	[
*	*^	*
8A	4B 4f#	4b	>
[8G#J	.	.	)
4G#]	4B 4e#X	4cc#	]
*	*v	*v	*
!!LO:LB:g=original
=17	=17	=17
*^	*	*
4ryy	8G#/L	4r	mf
.	[8AJ	.	.
*	*	*^	*
4.A]	4.f#	4c# 4a	4cc#	.
.	.	4c# 4a	4a	<
[8A	8A	.	.	[
=18	=18	=18	=18	=18
2.A]	2f#	4dn 4a	2.b	>
.	.	4d 4a	.	]
.	4e#X	4d 4a	.	.
*	*	*v	*v	*
*v	*v	*	*
=19	=19	=19
8G#/L	4r	.
[8AJ	.	.
*	*^	*
2A] 2f#	4c# 4a	4cc#	.
.	4c# 4a	4a	.
*	*v	*v	*
=20	=20	=20
2.D#	4c# 4f# 4b	p
.	4c# 4f# 4a	.
.	4A 4c# 4f#	.
=21	=21	=21
*^	*	*
4ryy	8D#/L	4r	p
.	[8EJ	.	.
*	*	*^	*
4.E]	4.c#	4G# 4e	4g#	.
.	.	4G# 4e	4e	<
[8E	8E	.	.	[
=22	=22	=22	=22	=22
2.E]	2c#	4A 4e	2.f#	>
.	.	4A 4e	.	]
.	4B#X	4A 4e	.	.
*	*	*v	*v	*
!!LO:LB:g=original
=23	=23	=23	=23
4ryy	8D#/L	4r	.
.	[8EJ	.	.
*	*	*^	*
4.E]	4.c#	4G# 4e	4g#	.
.	.	4G# 4e	4e	.
[8E	8E	.	.	.
=24	=24	=24	=24	=24
2.E]	4.c#	4A	2.e	.
.	.	4A	.	.
.	4.cn	.	.	.
.	.	4A	.	.
*	*	*v	*v	*
=25	=25	=25	=25
8GG#/L	4ryy	4r	pp
[8AAJ	.	.	.
*	*	*^	*
2AA]	4.E	4A 4cn	2e	.
.	.	4A 4c	.	.
.	[8E	.	.	.
=26	=26	=26	=26	=26
2.E]	2.cn	4A 4e	2.f#	.
.	.	4A 4e	.	.
.	.	4A 4e	.	<
*	*	*v	*v	*
=27	=27	=27	=27
4ryy	8FF##X/L	4r	.
.	[8GG#J	.	.
*	*	*^	*
2GG#]	4.E	4G# 4B#X 4e	2f#	.
.	.	4G# 4B# 4e	.	.
.	[8E	.	.	.
=28	=28	=28	=28	=28
2.E]	2.B#X	4G# 4e	2.g#	.
.	.	4G# 4e	.	.
.	.	4G# 4e	.	.
*	*	*v	*v	*
!!LO:LB:g=original
=29	=29	=29	=29
4ryy	8EE#X/L	4r	<
.	[8FF#J	.	.
*	*	*^	*
2FF#]	4.En	4A 4c# 4e	2g#	.
.	.	4A 4c# 4e	.	.
.	[8E	.	.	.
=30	=30	=30	=30	=30
2E]	[2c#	4A 4e	[2a	.
.	.	4A 4e	.	.
4r	8c#_	8A 8e	8a]	.
*	*	*v	*v	*
.	8c#_	8r	.
*v	*v	*	*
=31	=31	=31
8c#L]	4r	mf
8B#X	.	.
*	*^	*
8c#	4e 4a	8eeL	.
8F#	.	8dd#J	.
8G#	4e	12cc#L	.
.	.	12.bn	.
8C#J	.	.	.
.	.	24cc#Jk	.
=32	=32	=32	=32
2F#	4c# 4e	2a	.
.	4c# 4e	.	.
4C# 4G#	4e	12cc#L	pp
.	.	12.b	.
.	.	24cc#Jk	.
=33	=33	=33	=33
2.F#	2.c# 2.e	2.a	.
*	*v	*v	*
=34	=34	=34
2.BB	2.B 2.d# 2.g#	.
=35	=35	=35
2.EEE [2.EE [2.BB	[2.G# [2.e [2.b	.
=36	=36	=36
2.EE] 2.BB]	2.G#] 2.e] 2.b]	.
==	==	==
*-	*-	*-
!!!system-decoration: {(*)}
!!!filter: flipper -a
!!!ENC: Bryan Jacob Bell
!!!END: November 2021 to April 2022
!!!PED: Günter Philipp
!!!PTL: Ausgewählte Klavierwerke (Edition Peters)
